X: 38475
T: Steamboat, The
R: jig
M: 6/8
K: Gmajor
|:d|g2 d B2 A GB/c/d g2 d|gfe dcB Adc BAG|
g2 d B3 GBd g3|gfe dcB dcA G2:|
|:D|GB/c/d d>ed d>ed B2 G|c2 G e>fe e2 e d2 c|
G2 B dd/d/d d>ed B2 G|gg/f/e dcB dcA G2:|

